arcticons-dark/symbolic/apps/steam_icon_1849900-symbolic.svg

<?xml version="1.0" encoding="UTF-8" standalone="no"?>
<svg
   id="Layer_2"
   data-name="Layer 2"
   viewBox="0 0 48 48"
   version="1.1"
   sodipodi:docname="steam_icon_1849900.svg"
   xmlns:inkscape="http://www.inkscape.org/namespaces/inkscape"
   xmlns:sodipodi="http://sodipodi.sourceforge.net/DTD/sodipodi-0.dtd"
   xmlns="http://www.w3.org/2000/svg"
   xmlns:svg="http://www.w3.org/2000/svg">
  <sodipodi:namedview
     id="namedview3"
     pagecolor="#ffffff"
     bordercolor="#666666"
     borderopacity="1.0"
     inkscape:showpageshadow="2"
     inkscape:pageopacity="0.0"
     inkscape:pagecheckerboard="0"
     inkscape:deskcolor="#d1d1d1" />
  <defs
     id="defs1">
    <style
       id="style1">.cls-1{fill:none;stroke:#fff;stroke-width:2px;stroke-linecap:round;stroke-linejoin:round;}</style>
  </defs>
  <path
     style="color:#000000;fill:#ffffff;stroke-linecap:round;stroke-linejoin:round;-inkscape-stroke:none"
     d="m 16.363281,12.224609 c -1.91362,-0.02534 -3.908279,0.169764 -6.207031,0.410157 a 1.0001,1.0001 0 0 0 -0.0098,0.002 c -3.398594,0.388894 -5.7404683,2.689472 -6.4394527,5.324218 -0.6989845,2.634747 0.2996095,5.679397 3.1757812,7.238282 3.9226735,2.145545 9.2124225,2.279672 13.3593745,1.392578 2.692289,-0.470156 4.804632,-2.58623 5.269532,-5.279297 0.606514,-3.028011 0.384891,-4.939917 -0.445313,-6.222656 -0.831249,-1.284355 -2.144962,-1.679 -2.986328,-1.951172 h -0.002 c -1.970134,-0.64243 -3.801861,-0.88873 -5.714844,-0.914063 z m -0.06055,1.996094 c 1.758876,0.01966 3.387137,0.243222 5.15625,0.820313 a 1.0001,1.0001 0 0 0 0.0039,0 c 0.858691,0.277812 1.508046,0.494298 1.923828,1.136718 0.415782,0.642421 0.721453,1.973483 0.162109,4.75586 a 1.0001,1.0001 0 0 0 -0.0039,0.0293 C 23.225491,22.83831 21.765326,24.301379 19.890625,24.625 a 1.0001,1.0001 0 0 0 -0.04102,0.0078 C 16.101186,25.439435 11.108774,25.23219 7.8398437,23.443359 a 1.0001,1.0001 0 0 0 -0.00391,-0.002 C 5.7121142,22.290294 5.1471107,20.334858 5.640625,18.474609 6.1337259,16.615919 7.7397043,14.928176 10.367188,14.625 c 2.289217,-0.239378 4.177822,-0.423943 5.935546,-0.404297 z"
     id="path1" />
  <path
     style="color:#000000;fill:#ffffff;stroke-linecap:round;stroke-linejoin:round;-inkscape-stroke:none"
     d="m 19.814453,3.8300781 a 1.0001,1.0001 0 0 0 -0.09375,0.00781 C 16.440911,4.2679424 14.322666,5.1285549 12.882813,6.21875 11.442959,7.3089451 10.735938,8.6101547 10.224609,9.6328125 a 1.0001,1.0001 0 0 0 -0.05273,0.1289063 C 9.7641099,10.972879 9.4632134,12.216973 9.2714844,13.480469 a 1,1 0 0 0 0.8378906,1.138672 1,1 0 0 0 1.138672,-0.839844 c 0.171285,-1.128769 0.445641,-2.239229 0.806641,-3.322266 0.477101,-0.9496187 0.96978,-1.835921 2.035156,-2.6425779 1.08654,-0.8226813 2.830903,-1.5806651 5.849609,-1.9824219 2.03509,-0.069538 4.073381,-0.017723 6.101563,0.1640625 a 1.0001,1.0001 0 0 0 0.01172,0 c 1.758705,0.1356328 2.910569,0.678012 3.882813,1.6972657 0.972244,1.0192537 1.757641,2.5977266 2.439453,4.8027346 0.723008,2.40797 1.263251,4.865537 1.625,7.353515 l 0.08594,22.38086 H 7.7519531 C 6.8227124,37.372856 7.3883907,29.681499 8.34375,24.501953 A 1,1 0 0 0 7.5410156,23.335937 1,1 0 0 0 6.3769531,24.138672 C 5.3388256,29.766952 4.6209899,38.043725 5.90625,43.460937 a 1.0001,1.0001 0 0 0 0.9746094,0.769532 H 35.089844 a 1.0001,1.0001 0 0 0 1,-1.003907 L 36,19.746094 a 1.0001,1.0001 0 0 0 -0.0098,-0.138672 C 35.613987,17.003963 35.043969,14.43138 34.287109,11.912109 a 1.0001,1.0001 0 0 0 -0.002,-0.0078 C 33.556969,9.5493095 32.685566,7.6782439 31.382812,6.3125 30.080059,4.9467561 28.338323,4.1682732 26.207031,4.0039062 24.081725,3.8139036 21.946916,3.7548473 19.814453,3.8300781 Z"
     id="path2" />
  <path
     style="color:#000000;fill:#ffffff;stroke-linecap:round;stroke-linejoin:round;-inkscape-stroke:none"
     d="m 35.158203,18.761719 a 1,1 0 0 0 -1.146484,0.830078 1,1 0 0 0 0.830078,1.146484 c 2.100654,0.336263 4.178272,0.804295 6.222656,1.392578 0.224824,0.115902 0.437901,0.231692 0.527344,0.302735 0.10334,0.08208 0.018,0.03295 0.0098,-0.101563 a 1.0001,1.0001 0 0 0 0.002,0.01758 c 0.55314,7.000091 1.104136,14.968726 0.628906,19.919922 h -7.113281 a 1,1 0 0 0 -1,1 1,1 0 0 0 1,1 h 8.091796 a 1.0001,1.0001 0 0 0 0.992188,-0.875 c 0.668273,-5.304413 -0.02541,-13.862414 -0.605469,-21.203125 v 0.01758 c -0.03824,-0.62451 -0.427559,-1.074425 -0.761719,-1.339843 -0.334159,-0.265419 -0.670466,-0.42996 -0.958984,-0.574219 a 1.0001,1.0001 0 0 0 -0.167969,-0.06641 c -2.151176,-0.623011 -4.339358,-1.112803 -6.550781,-1.466797 z"
     id="path3" />
</svg>

<?xml version="1.0" encoding="UTF-8"?>
<svg id="Layer_2" data-name="Layer 2" version="1.1" viewBox="0 0 48 48" xmlns="http://www.w3.org/2000/svg">
 <defs id="defs4">
  <style id="style2">.cls-1{fill:none;stroke:#fff;stroke-width:2px;stroke-linecap:round;stroke-linejoin:round;}</style>
 </defs>
 <path id="path6" d="m16.363 12.225c-1.9136-0.02534-3.9083 0.16976-6.207 0.41016a1.0001 1.0001 0 0 0-0.0098 2e-3c-3.3986 0.38889-5.7405 2.6895-6.4395 5.3242-0.69898 2.6347 0.29961 5.6794 3.1758 7.2383 3.9227 2.1455 9.2124 2.2797 13.359 1.3926 2.6923-0.47016 4.8046-2.5862 5.2695-5.2793 0.60651-3.028 0.38489-4.9399-0.44531-6.2227-0.83125-1.2844-2.145-1.679-2.9863-1.9512h-2e-3c-1.9701-0.64243-3.8019-0.88873-5.7148-0.91406zm-0.06055 1.9961c1.7589 0.01966 3.3871 0.24322 5.1562 0.82031a1.0001 1.0001 0 0 0 0.0039 0c0.85869 0.27781 1.508 0.4943 1.9238 1.1367 0.41578 0.64242 0.72145 1.9735 0.16211 4.7559a1.0001 1.0001 0 0 0-0.0039 0.0293c-0.31943 1.8754-1.7796 3.3385-3.6543 3.6621a1.0001 1.0001 0 0 0-0.04102 0.0078c-3.7484 0.80664-8.7408 0.59939-12.01-1.1894a1.0001 1.0001 0 0 0-0.00391-2e-3c-2.1238-1.1511-2.6888-3.1065-2.1953-4.9668 0.4931-1.8587 2.0991-3.5464 4.7266-3.8496 2.2892-0.23938 4.1778-0.42394 5.9355-0.4043z" color="#000000" fill="#fff" stroke-linecap="round" stroke-linejoin="round" style="-inkscape-stroke:none"/>
 <path id="path8" d="m19.814 3.8301a1.0001 1.0001 0 0 0-0.09375 0.00781c-3.2798 0.43005-5.398 1.2907-6.8379 2.3809-1.4399 1.0902-2.1469 2.3914-2.6582 3.4141a1.0001 1.0001 0 0 0-0.05273 0.12891c-0.40777 1.2112-0.70867 2.4553-0.90039 3.7188a1 1 0 0 0 0.83789 1.1387 1 1 0 0 0 1.1387-0.83984c0.17128-1.1288 0.44564-2.2392 0.80664-3.3223 0.4771-0.94962 0.96978-1.8359 2.0352-2.6426 1.0865-0.82268 2.8309-1.5807 5.8496-1.9824 2.0351-0.069538 4.0734-0.017723 6.1016 0.16406a1.0001 1.0001 0 0 0 0.01172 0c1.7587 0.13563 2.9106 0.67801 3.8828 1.6973s1.7576 2.5977 2.4395 4.8027c0.72301 2.408 1.2633 4.8655 1.625 7.3535l0.08594 22.381h-26.334c-0.92924-4.8576-0.36356-12.549 0.5918-17.729a1 1 0 0 0-0.80273-1.166 1 1 0 0 0-1.1641 0.80274c-1.0381 5.6283-1.756 13.905-0.4707 19.322a1.0001 1.0001 0 0 0 0.97461 0.76953h28.209a1.0001 1.0001 0 0 0 1-1.0039l-0.089844-23.48a1.0001 1.0001 0 0 0-0.0098-0.13867c-0.37621-2.6035-0.94623-5.176-1.7031-7.6953a1.0001 1.0001 0 0 0-2e-3 -0.0078c-0.72814-2.355-1.5995-4.2261-2.9023-5.5918-1.3028-1.3657-3.0445-2.1442-5.1758-2.3086-2.1253-0.19-4.2601-0.24906-6.3926-0.17383z" color="#000000" fill="#fff" stroke-linecap="round" stroke-linejoin="round" style="-inkscape-stroke:none"/>
 <path id="path10" d="m35.158 18.762a1 1 0 0 0-1.1465 0.83008 1 1 0 0 0 0.83008 1.1465c2.1007 0.33626 4.1783 0.8043 6.2227 1.3926 0.22482 0.1159 0.4379 0.23169 0.52734 0.30274 0.10334 0.08208 0.018 0.03295 0.0098-0.10156a1.0001 1.0001 0 0 0 2e-3 0.01758c0.55314 7.0001 1.1041 14.969 0.62891 19.92h-7.1133a1 1 0 0 0-1 1 1 1 0 0 0 1 1h8.0918a1.0001 1.0001 0 0 0 0.99219-0.875c0.66827-5.3044-0.02541-13.862-0.60547-21.203v0.01758c-0.03824-0.62451-0.42756-1.0744-0.76172-1.3398-0.33416-0.26542-0.67047-0.42996-0.95898-0.57422a1.0001 1.0001 0 0 0-0.16797-0.06641c-2.1512-0.62301-4.3394-1.1128-6.5508-1.4668z" color="#000000" fill="#fff" stroke-linecap="round" stroke-linejoin="round" style="-inkscape-stroke:none"/>
</svg>
